X:1
T:Moonlight, Piano Sonata No. 14
T:for Flute and Piano
T:Ludwig van Beethoven
%%score 1 { ( 2 4 ) | 3 }
L:1/8
Q:1/4=52
M:2/2
K:E
V:1 treble nm="Flute" snm="Fl."
V:2 treble nm="Piano" snm="Pno."
V:4 treble 
V:3 bass 
V:1
 z8 | z8 | z8 | z8 | z4 z2 B>.B | B6 B>.B | B4 ^B4 | B4 A2 =d2 | .=G4 z4 | z4 z2 ^A>.A | ^A6 A>.A | %11
 ^A6 =A2 | A4 ^A2 =G2 | A4 A4 | .=D4 z2 =d2 | ^d6 c2 | =d6 d2 | ^d6 c2 | =d4 d4 | =d4 ^B4 | %20
 ^A4 =A4 | E4 E2 E2 | .A4 z2 e>.e | e6 e>.e | e4 d2 e2 | f6 f2 | =g4 f2 e2 | .d2 B2 ^B2 A2 | %28
 z2 b2 ^b2 a2 | z2 e2 =g2 e2 | z2 E2 =G2 E2 | F2 D2 A2 F2 | B2 =G2 e2 B2 | =g2 e2 c'2 ^a2 | a8 | %35
 z8 | z4 F2 E2 | D4 f2 e2 | d4 ^e'2 =e'2 | d'4 e'4 | ^b4 =b4 | e8 | z2 b>.b .b4 | z2 b>.b ^b4 | %44
 b4 a2 =d'2 | .=g4 z2 =d>.d | =d6 d>.d | =d4 ^d2 e2 | f4 =g4 | ^e4 d4 | e6 e2 | ^e6 d2 | e6 e2 | %53
 ^e6 d2 | e4 e4 | =d6 d2 | ^B2 B2 =B2 B2 | A4 B2 ^B2 | B4 B4 | E8 | z2 B>.B .B4 | z2 b>.b .b4 | %62
 z4 z2 D2 | .E4 z4 | z4 z2 D2 | .E4 z4 | z8[Q:1/4=50][Q:1/4=45] | z4 .=G4 | E8 |] %69
V:2
 (3B,E=G (3B,EG (3B,EG (3B,EG | (3B,E=G (3B,EG (3B,EG (3B,EG | (3^B,E=G (3B,EG (3B,^EA (3B,EA | %3
 (3B,DA (3B,E=G (3B,EF (3A,DF | (3=G,B,E (3B,E=G (3B,EG (3B,EG | (3B,FA (3B,FA (3B,FA (3B,FA | %6
 (3B,E=G (3B,EG (3^B,EA (3B,EA | (3B,=D=G (3B,DG (3^B,DF (3B,DF | (3B,=D=G (3B,DG (3B,DG (3B,DG | %9
 (3^A,=D=G (3A,DG (3A,DG (3A,DG | (3^A,=DG (3A,DG (3A,DG (3A,DG | (3^A,D=G (3A,=DG (3A,EG (3=A,EG | %12
 (3A,=D^E (3A,DE (3^A,D=E (3=G,DE | (3A,=D^E (3A,DE (3A,C=E (3A,CE | (3=D^EA (3DEA (3DFA (3DFA | %15
 (3=D=G^A (3DGA (3DGA (3DGA | (3=DFA (3DFA (3DFA (3DFA | (3=D=G^A (3DGA (3DGA (3DGA | %18
 (3=DFA (3DFA (3D^EG (3DEG | (3=DEB (3DEB (3^B,EA (3B,EA | %20
[K:treble][K:bass] (3^A,=D^E (3A,DE (3=A,^B,F (3A,B,F | (3E,A,^B, (3E,A,B, (3E,A,=B, (3E,G,B, | %22
[K:treble] (3A,^B,E (3B,EA (3EA^B (3EAB | (3EB=d (3EBd (3EBd (3EBd | (3EA^B (3EAB (3DAB (3EAB | %25
 (3FAB (3FAB (3FAB (3FAB | (3=GBe (3GBe (3FA^B (3EGc | (3dDF (3BDF (3^BDF (3ADF | %28
 (3z DF (3B,DF (3^B,DF (3A,DF | (3=G,=GB (3eGB (3=gGB (3eGA | (3z =G,B, (3EG,B, (3=GG,B, (3EG,B, | %31
 (3F,^B,A, (3DB,F (3DAF (3^BAd | (3=G,EB, (3=GEB (3GeB (3=geB | (3E^A=G (3cAe (3c=ge (3^agc' | %34
 (3Ad^B (3fda (3f^ba (3d'bf' | (3d'a^b (3fad (3f^Bd (3ABF | (3ADF (3^B,DA, (3B,F,A, (3E,A,B, | %37
 (3D,A,B, (3^B,=B,A, (3F,A,^B, (3E,A,B, | (3D,A,B, (3^B,=B,A, (3^E,A,^B, (3=E,A,B, | %39
 (3D,A,B, (3^B,=B,A, (3E,=G,E (3E,G,E | (3F,^B,E (3F,B,E (3F,=B,D (3F,A,D | %41
 (3=G,B,E (3B,E=G (3B,EG B2 | B6 B2 | B4 ^B4 | B4 A2 =d2 | .=G4 z4 | (3=DA^B (3DAB (3DAB (3DAB | %47
 (3=D=GB (3DGB (3^DAB (3EGB | (3FAB (3FAB (3=GBe (3GBe | (3^EA^B (3EAB (3DA=B (3DAB | %50
 (3E=GB (3EGB (3E^GB (3EGB | (3EA^B (3EAB (3EAB (3EAB | (3EGB (3EGB (3EGB (3EGB | %53
 (3EA^B (3EAB (3EAB (3EAB | (3EGB (3EGB (3EA^B (3EAB | (3=DA^B (3DAB (3DAB (3D=G=B | %56
 (3^B,=GB (3B,FA (3=B,FA (3B,EG | (3A,EF (3A,EF (3B,EF (3^B,EF | (3B,E=G (3B,EG (3A,DF (3A,DF | %59
 (3=G,B,E (3B,E=G (3B,EG (3B,EG | (3B,FA (3B,FA (3B,FA (3B,FA | (3B,=GE (3BGe (3B=ge (3bge | %62
 (3df^B (3dAB (3FA^B,- (3B,=B,A, | (3=G,=GE (3BGe (3B=ge (3bge | (3df^B (3dAB (3FA^B,- (3B,=B,A, | %65
 (3EB,E (3=GEB, (3z =G,B, (3EB,G, |[K:bass] (3z E,=G, (3B,G,E, (3B,,E,B,, (3=G,,B,,G,, | %67
[K:treble] z4 E4 | E8 |] %69
V:3
 E,8 | =D,8 | ^B,,4 A,,4 | B,,4 B,,4 | E,8 | D,8 | E,4 A,,4 | =D,4 D,4 | =G,8 | =G,8 | ^E,8 | %11
 D,2 =D,2 C,4 | =D,4 =G,,2 ^A,,2 | A,,4 A,,4 | =D,8- | D,2 =G,2 ^A,2 G,2 | =D,8- | %17
 D,2 =G,2 ^A,2 G,2 | =D,4 B,,4 | G,,4 A,,4 | =D,4 ^D,4 | E,,4 E,,4 | A,,8 | G,8 | A,4 F,2 E,2 | %25
 D,6 D,2 | E,4 A,,2 ^A,,2 | B,,8 | B,,8 | B,,8 | B,,8 | B,,8 | B,,8 | B,,8 | B,,8- | B,,8- | B,,8 | %37
 B,,8 | B,,8 | B,,4 ^B,,4 | A,,4 B,,4 | E,6 B,,>B,, | B,,6 B,,>B,, | B,,4 A,,4 | =D,4 D,4 | =G,8 | %46
 F,8 | =G,4 F,2 E,2 | D,4 E,4 | A,,4 B,,4 | E,8- | E,2 A,2 ^B,2 A,2 | E,8- | E,2 A,2 ^B,2 A,2 | %54
 E,4 A,,4 | F,6 =G,2 | E,2 F,2 D,2 E,2 | ^B,,4 =B,,2 A,,2 | B,,4 B,,4 | =G,6 B,,>B,, | %60
 B,,6 B,,>B,, | B,,6 B,,>B,, | B,,6 B,,>B,, | B,,6 B,,>B,, | B,,6 B,,>B,, | .[B,,=G,]4 E,4 | B,,8 | %67
 E,,4 [=G,B,]4 | [=G,B,]8 |] %69
V:4
 x8 | x8 | x8 | x8 | x8 | x8 | x8 | x8 | x8 | x8 | x8 | x8 | x8 | x8 | x8 | x8 | x8 | x8 | x8 | %19
 x8 |[K:treble][K:bass] x8 | x8 |[K:treble] x8 | x8 | x8 | x8 | x8 | x8 | x8 | x8 | x8 | x8 | x8 | %33
 x8 | x8 | x8 | x8 | x8 | x8 | x8 | x8 | x6 (3B,E=G | (3B,FA (3B,FA (3B,FA (3B,FA | %43
 (3B,E=G (3B,EG (3^B,EA (3B,EA | (3B,=D=G (3B,DG (3^B,DF (3B,DF | (3B,=D=G (3DGB (3DGB (3DGB | x8 | %47
 x8 | x8 | x8 | x8 | x8 | x8 | x8 | x8 | x8 | x8 | x8 | x8 | x8 | x8 | x8 | x8 | x8 | x8 | x8 | %66
[K:bass] x8 |[K:treble] x8 | x8 |] %69

